X:1
T:Förlossningen Är Vunnen, 76.76.776
T:Förlossningen Är Vunnen, 76.76.776
T:German Enchiridion, 1524
T:Public Domain Courtesy of the Cyber Hymnal™
C:German Enchiridion, 1524
Z:Public Domain
Z:Courtesy of the Cyber Hymnal™
%%score ( 1 2 ) ( 3 4 )
L:1/8
Q:1/4=110
M:2/4
K:G
V:1 treble 
V:2 treble 
V:3 bass 
V:4 bass 
V:1
 z2 [DG]2 | [EG]2 [GB]2 | [FA]2 [EG]2 | F4 | !fermata![B,E]2 [EB]2 | [Ec]2 [FA]2 | [DB]2 [DA]2 | %7
 !fermata![B,G]4 | z2 [DG]2 | [EG]2 [GB]2 | [FA]2 [EG]2 | F4 | !fermata![B,E]2 [EB]2 | %13
 [Ec]2 [FA]2 | [DB]2 [DA]2 | [B,G]4 | z2 G2 | [GB]2 [GB]2 | [Ec]2 [FA]2 | [Gd]4 | %20
 !fermata![FA]2 [Dd]2 | [DB]2 [EG]2 | [EA]2 [EG]2 | F4 | !fermata![B,E]2 [EB]2 | [Ec]2 [FA]2 | %26
 [DB]2 [DA]2 | !fermata![B,G]4 |] %28
V:2
 x4 | x4 | x4 | (E2 ^D2) | x4 | x4 | x4 | x4 | x4 | x4 | x4 | (E2 ^D2) | x4 | x4 | x4 | x4 | %16
 x2 G2 | x4 | x4 | x4 | x4 | x4 | x4 | (E2 ^D2) | x4 | x4 | x4 | x4 |] %28
V:3
 z2 [G,B,]2 | [C,C]2 [G,,D]2 | [D,D]2 [E,B,]2 | [B,,B,]4 | !fermata![E,G,]2 [E,G,]2 | %5
 [A,,A,]2 [D,A,]2 | G,2 [D,F,]2 | !fermata![G,,G,]4 | z2 [G,B,]2 | [C,C]2 [G,,D]2 | %10
 [D,D]2 [E,B,]2 | [B,,B,]4 | !fermata![E,G,]2 [E,G,]2 | [A,,A,]2 [D,A,]2 | G,2 [D,F,]2 | %15
 !fermata![G,,G,]4 | z2 [B,D]2 | [G,D]2 [E,E]2 | [A,,C]2 [D,D]2 | [B,,D]4 | %20
 !fermata![D,D]2 [F,A,]2 | G,2 [E,B,]2 | [A,,C]2 [E,B,]2 | [B,,B,]4 | !fermata![E,G,]2 [E,G,]2 | %25
 [A,,A,]2 [D,A,]2 | G,2 [D,F,]2 | !fermata![G,,G,]4 |] %28
V:4
 x4 | x4 | x4 | x4 | x4 | x4 | G,2 x2 | x4 | x4 | x4 | x4 | x4 | x4 | x4 | G,2 x2 | x4 | x4 | x4 | %18
 x4 | x4 | x4 | G,2 x2 | x4 | x4 | x4 | x4 | G,2 x2 | x4 |] %28

